X: 1
T: The New Air
M: 3/4
L: 1/8
K: Amix
C: MAC
c<e|: f2 f2 e<a | g<f e2 e<f | A2 AB c<e | e2 c2 c<e | 
f2 f2 e<a | g<f e2 e<f | A2 A2 A<c |1 B2 B2 c<e :

